**kern	**silbe	**harmony	**chordsym	**phrase	**timestamp	**leadinstrument
*ICvox	*	*M4/4	*M4/4	*	*	*
*e:	*	*e:	*e:	*e:	*e:	*e:
*M4/4	*	*	*	*	*	*
*clefG2	*	*	*	*	*	*
r;	.	1r;	r	.	0	r
=1	=1	=1	=1	=1	=1	=1
*	*	*>A_trans	*>A_trans	*>A_trans	*>A_trans	*>A_trans
1r	.	1Bm	B:sus4(b7) (B E F# A)	newline	1.022	synthesizer
=2	=2	=2	=2	=2	=2	=2
1r	.	1Bm	B:sus4(b7) (B E F# A)	.	.	synthesizer
=3	=3	=3	=3	=3	=3	=3
*	*	*>B2_intro	*>B2_intro	*>B2_intro	*>B2_intro	*>B2_intro
1r	.	2Em	E:min (E G B)	newline	5.146	synthesizer
.	.	2AM	A:maj6 (A C# E F#)	.	.	synthesizer
=4	=4	=4	=4	=4	=4	=4
1r	.	2Em	E:min (E G B)	.	.	synthesizer
.	.	2AM	A:maj6 (A C# E F#)	.	.	synthesizer
=5	=5	=5	=5	=5	=5	=5
*	*	*>A_trans	*>A_trans	*>A_trans	*>A_trans	*>A_trans
1r	.	1Bm	B:sus4(b7) (B E F# A)	newline	8.97	synthesizer
=6	=6	=6	=6	=6	=6	=6
1r	.	1Bm	B:sus4(b7) (B E F# A)	.	.	synthesizer
=7	=7	=7	=7	=7	=7	=7
*	*	*>B2_instrumental	*>B2_instrumental	*>B2_instrumental	*>B2_instrumental	*>B2_instrumental
1r	.	2Em	E:min (E G B)	newline	12.789	synthesizer
.	.	2AM	A:maj6 (A C# E F#)	.	.	synthesizer
=8	=8	=8	=8	=8	=8	=8
1r	.	2Em	E:min (E G B)	.	.	synthesizer
.	.	2AM	A:maj6 (A C# E F#)	.	.	synthesizer
=9	=9	=9	=9	=9	=9	=9
1r	.	2Em	E:min (E G B)	.	.	synthesizer
.	.	2AM	A:maj6 (A C# E F#)	.	.	synthesizer
=10	=10	=10	=10	=10	=10	=10
1r	.	2Em	E:min (E G B)	.	.	synthesizer
.	.	2AM	A:maj6 (A C# E F#)	.	.	synthesizer
=11	=11	=11	=11	=11	=11	=11
*	*	*>B_verse	*>B_verse	*>B_verse	*>B_verse	*>B_verse
8ee	God-	2Em	E:min (E G B)	newline	20.439	voice
8ee	-dess	.	.	.	.	.
8dd#	on	.	.	.	.	.
8cc#	the	.	.	.	.	.
8cc#	moun-	2AM	A:maj6 (A C# E F#)	.	.	voice
8b	-tain	.	.	.	.	.
8cc#	_	.	.	.	.	.
8cc#	top	.	.	.	.	.
=12	=12	=12	=12	=12	=12	=12
1r	.	2Em	E:min (E G B)	.	.	voice
.	.	2AM	A:maj6 (A C# E F#)	.	.	voice
=13	=13	=13	=13	=13	=13	=13
8ee	bur-	2Em	E:min (E G B)	.	.	voice
8ee	-ning	.	.	.	.	.
8dd#	like	.	.	.	.	.
8cc#	a	.	.	.	.	.
8cc#	sil-	2AM	A:maj6 (A C# E F#)	.	.	voice
4cc#	-ver	.	.	.	.	.
8cc#	flame	.	.	.	.	.
=14	=14	=14	=14	=14	=14	=14
2r	.	2Em	E:min (E G B)	.	.	voice
4r	.	2AM	A:maj6 (A C# E F#)	.	.	voice
8r	.	.	.	.	.	.
8cc#	the	.	.	.	.	.
=15	=15	=15	=15	=15	=15	=15
8ee	sum-	2Em	E:min (E G B)	newline	28.017	voice
8ee	-mit	.	.	.	.	.
8dd#	of	.	.	.	.	.
4cc#	beau-	.	.	.	.	.
.	.	2AM	A:maj6 (A C# E F#)	.	.	voice
8cc#	-ty	.	.	.	.	.
8cc#	and	.	.	.	.	.
8cc#	love	.	.	.	.	.
=16	=16	=16	=16	=16	=16	=16
2r	.	2Em	E:min (E G B)	.	.	voice
4r	.	2AM	A:maj6 (A C# E F#)	.	.	voice
8r	.	.	.	.	.	.
8cc#	and	.	.	.	.	.
=17	=17	=17	=17	=17	=17	=17
8ee	Ve-	2Em	E:min (E G B)	.	.	voice
8ee	-nus	.	.	.	.	.
8dd#	was	.	.	.	.	.
8cc#	her	.	.	.	.	.
8cc#	name	2AM	A:maj6 (A C# E F#)	.	.	voice
8dd#	_	.	.	.	.	.
4r	.	.	.	.	.	.
=18	=18	=18	=18	=18	=18	=18
2r	.	1Em	E:min (E G B)	.	.	voice
4r	.	.	.	.	.	.
8r	.	.	.	.	.	.
8ee	She's	.	.	.	.	.
=19	=19	=19	=19	=19	=19	=19
*	*	*>C_chorus	*>C_chorus	*>C_chorus	*>C_chorus	*>C_chorus
8ff#	got	2Amm	A:min7 (A C E G)	newline	35.661	voice
4ff#	it	.	.	.	.	.
8r	.	.	.	.	.	.
2r	.	2DM	D:maj6 (D F# A B)	.	.	voice
=20	=20	=20	=20	=20	=20	=20
4r	.	2Amm	A:min7 (A C E G)	.	.	voice
8ff#	Yeah	.	.	.	.	.
4ff#	ba-	.	.	.	.	.
.	.	2DM	D:maj6 (D F# A B)	.	.	voice
8ee	-by	.	.	.	.	.
4ff#	she's	.	.	.	.	.
=21	=21	=21	=21	=21	=21	=21
8ee	got	2Em	E:min (E G B)	.	.	voice
4cc#	it	.	.	.	.	.
8r	.	.	.	.	.	.
2r	.	2AM	A:maj6 (A C# E F#)	.	.	voice
=22	=22	=22	=22	=22	=22	=22
1r	.	2Em	E:min (E G B)	.	.	voice
.	.	2AM	A:maj6 (A C# E F#)	.	.	voice
=23	=23	=23	=23	=23	=23	=23
8r	.	1CM	C:maj (C E G)	newline	43.305	voice
4ee	I'm	.	.	.	.	.
8cc#	your	.	.	.	.	.
8cc#	Ve-	.	.	.	.	.
8ee	-nus	.	.	.	.	.
4r	.	.	.	.	.	.
=24	=24	=24	=24	=24	=24	=24
8r	.	2Bm	B:sus4(b7) (B E F# A)	.	.	voice
4gg#	I'm	.	.	.	.	.
8gg#	your	.	.	.	.	.
8ff#	fi-	2BMm	B:7 (B D# F# A)	.	.	voice
8gg#	-re	.	.	.	.	.
8cc#	at	.	.	.	.	.
[8ee	your	.	.	.	.	.
=25	=25	=25	=25	=25	=25	=25
8ee]	_	2Em	E:min (E G B)	.	.	voice
8cc#	de-	.	.	.	.	.
8b	-si-	.	.	.	.	.
8cc#	-re	.	.	.	.	.
2r	.	2AM	A:maj6 (A C# E F#)	.	.	voice
=26	=26	=26	=26	=26	=26	=26
2r	.	2Em	E:min (E G B)	.	.	voice
4r	.	2AM	A:maj6 (A C# E F#)	.	.	voice
4cc#	Well	.	.	.	.	.
=27	=27	=27	=27	=27	=27	=27
8r	.	1CM	C:maj (C E G)	newline	50.97	voice
4ee	I'm	.	.	.	.	.
8cc#	your	.	.	.	.	.
8cc#	Ve-	.	.	.	.	.
8ee	-nus	.	.	.	.	.
4r	.	.	.	.	.	.
=28	=28	=28	=28	=28	=28	=28
8r	.	2Bm	B:sus4(b7) (B E F# A)	.	.	voice
4gg#	I'm	.	.	.	.	.
8gg#	your	.	.	.	.	.
8ff#	fi-	2BMm	B:7 (B D# F# A)	.	.	voice
8gg#	-re	.	.	.	.	.
8cc#	at	.	.	.	.	.
[8ee	your	.	.	.	.	.
=29	=29	=29	=29	=29	=29	=29
8ee]	_	2Em	E:min (E G B)	.	.	voice
8cc#	de-	.	.	.	.	.
8b	-si-	.	.	.	.	.
8cc#	-re	.	.	.	.	.
2r	.	2AM	A:maj6 (A C# E F#)	.	.	voice
=30	=30	=30	=30	=30	=30	=30
2r	.	2Em	E:min (E G B)	.	.	voice
4r	.	2AM	A:maj6 (A C# E F#)	.	.	voice
8r	.	.	.	.	.	.
8cc#	Her	.	.	.	.	.
=31	=31	=31	=31	=31	=31	=31
*	*	*>B_verse	*>B_verse	*>B_verse	*>B_verse	*>B_verse
8ee	wea-	2Em	E:min (E G B)	newline	58.614	voice
8ee	-pons	.	.	.	.	.
8dd#	were	.	.	.	.	.
8b	her	.	.	.	.	.
8cc#	cry-	2AM	A:maj6 (A C# E F#)	.	.	voice
4cc#	-stal	.	.	.	.	.
8cc#	eyes	.	.	.	.	.
=32	=32	=32	=32	=32	=32	=32
1r	.	2Em	E:min (E G B)	.	.	voice
.	.	2AM	A:maj6 (A C# E F#)	.	.	voice
=33	=33	=33	=33	=33	=33	=33
8ee	ma-	2Em	E:min (E G B)	.	.	voice
8ee	-king	.	.	.	.	.
8ee	ev'-	.	.	.	.	.
8ff#	-ry	.	.	.	.	.
8dd#	man	2AM	A:maj6 (A C# E F#)	.	.	voice
4b	_	.	.	.	.	.
8cc#	mad	.	.	.	.	.
=34	=34	=34	=34	=34	=34	=34
1r	.	2Em	E:min (E G B)	.	.	voice
.	.	2AM	A:maj6 (A C# E F#)	.	.	voice
=35	=35	=35	=35	=35	=35	=35
8ee	black	2Em	E:min (E G B)	newline	66.232	voice
8ee	as	.	.	.	.	.
8ee	the	.	.	.	.	.
8ee	dark	.	.	.	.	.
8dd#	_	2AM	A:maj6 (A C# E F#)	.	.	voice
4cc#	night	.	.	.	.	.
[8dd#	she	.	.	.	.	.
=36	=36	=36	=36	=36	=36	=36
8dd#]	_	2Em	E:min (E G B)	.	.	voice
8cc#	was	.	.	.	.	.
4r	.	.	.	.	.	.
8r	.	2AM	A:maj6 (A C# E F#)	.	.	voice
8ee	got	.	.	.	.	.
8ee	what	.	.	.	.	.
[8ee	no	.	.	.	.	.
=37	=37	=37	=37	=37	=37	=37
8ee]	_	2Em	E:min (E G B)	.	.	voice
8ee	one	.	.	.	.	.
8dd#	else	.	.	.	.	.
8cc#	_	.	.	.	.	.
8cc#	had	2AM	A:maj6 (A C# E F#)	.	.	voice
8r	.	.	.	.	.	.
4r	.	.	.	.	.	.
=38	=38	=38	=38	=38	=38	=38
2r	.	1Em	E:min (E G B)	.	.	voice
4r	.	.	.	.	.	.
8r	.	.	.	.	.	.
8ee	She's	.	.	.	.	.
=39	=39	=39	=39	=39	=39	=39
*	*	*>C_chorus	*>C_chorus	*>C_chorus	*>C_chorus	*>C_chorus
8ff#	got	2Amm	A:min7 (A C E G)	newline	73.893	voice
8ff#	it	.	.	.	.	.
4r	.	.	.	.	.	.
2r	.	2DM	D:maj6 (D F# A B)	.	.	voice
=40	=40	=40	=40	=40	=40	=40
4r	.	2Amm	A:min7 (A C E G)	.	.	voice
8ff#	Yeah	.	.	.	.	.
4ff#	ba-	.	.	.	.	.
.	.	2DM	D:maj6 (D F# A B)	.	.	voice
8ee	-by	.	.	.	.	.
4ff#	she's	.	.	.	.	.
=41	=41	=41	=41	=41	=41	=41
8ee	got	2Em	E:min (E G B)	.	.	voice
8cc#	it	.	.	.	.	.
4r	.	.	.	.	.	.
2r	.	2AM	A:maj6 (A C# E F#)	.	.	voice
=42	=42	=42	=42	=42	=42	=42
1r	.	2Em	E:min (E G B)	.	.	voice
.	.	2AM	A:maj6 (A C# E F#)	.	.	voice
=43	=43	=43	=43	=43	=43	=43
8r	.	1CM	C:maj (C E G)	newline	81.537	voice
4ee	I'm	.	.	.	.	.
8cc#	your	.	.	.	.	.
8cc#	Ve-	.	.	.	.	.
8ee	-nus	.	.	.	.	.
4r	.	.	.	.	.	.
=44	=44	=44	=44	=44	=44	=44
8r	.	2Bm	B:sus4(b7) (B E F# A)	.	.	voice
4gg#	I'm	.	.	.	.	.
8gg#	your	.	.	.	.	.
8ff#	fi-	2BMm	B:7 (B D# F# A)	.	.	voice
8gg#	-re	.	.	.	.	.
8cc#	at	.	.	.	.	.
[8ee	your	.	.	.	.	.
=45	=45	=45	=45	=45	=45	=45
8ee]	_	2Em	E:min (E G B)	.	.	voice
8cc#	de-	.	.	.	.	.
8b	-si-	.	.	.	.	.
8cc#	-re	.	.	.	.	.
2r	.	2AM	A:maj6 (A C# E F#)	.	.	voice
=46	=46	=46	=46	=46	=46	=46
2r	.	2Em	E:min (E G B)	.	.	voice
4r	.	2AM	A:maj6 (A C# E F#)	.	.	voice
4cc#	Well	.	.	.	.	.
=47	=47	=47	=47	=47	=47	=47
8r	.	1CM	C:maj (C E G)	newline	89.16	voice
4ee	I'm	.	.	.	.	.
8cc#	your	.	.	.	.	.
8cc#	Ve-	.	.	.	.	.
8ee	-nus	.	.	.	.	.
4r	.	.	.	.	.	.
=48	=48	=48	=48	=48	=48	=48
8r	.	2Bm	B:sus4(b7) (B E F# A)	.	.	voice
4gg#	I'm	.	.	.	.	.
8gg#	your	.	.	.	.	.
8ff#	fi-	2BMm	B:7 (B D# F# A)	.	.	voice
8gg#	-re	.	.	.	.	.
8cc#	at	.	.	.	.	.
[8ee	your	.	.	.	.	.
=49	=49	=49	=49	=49	=49	=49
8ee]	_	2Em	E:min (E G B)	.	.	voice
8cc#	de-	.	.	.	.	.
8b	-si-	.	.	.	.	.
8cc#	-re	.	.	.	.	.
2r	.	2AM	A:maj6 (A C# E F#)	.	.	voice
=50	=50	=50	=50	=50	=50	=50
1r	.	2Em	E:min (E G B)	.	.	voice
.	.	2AM	A:maj6 (A C# E F#)	.	.	voice
=51	=51	=51	=51	=51	=51	=51
*	*	*>A_trans	*>A_trans	*>A_trans	*>A_trans	*>A_trans
1r	.	1Bm	B:sus4(b7) (B E F# A)	newline	96.799	synthesizer
=52	=52	=52	=52	=52	=52	=52
1r	.	1Bm	B:sus4(b7) (B E F# A)	.	.	synthesizer
=53	=53	=53	=53	=53	=53	=53
*	*	*>B_solo	*>B_solo	*>B_solo	*>B_solo	*>B_solo
1r	.	2Em	E:min (E G B)	newline	100.645	synthesizer
.	.	2AM	A:maj6 (A C# E F#)	.	.	synthesizer
=54	=54	=54	=54	=54	=54	=54
1r	.	2Em	E:min (E G B)	.	.	synthesizer
.	.	2AM	A:maj6 (A C# E F#)	.	.	synthesizer
=55	=55	=55	=55	=55	=55	=55
1r	.	2Em	E:min (E G B)	.	.	synthesizer
.	.	2AM	A:maj6 (A C# E F#)	.	.	synthesizer
=56	=56	=56	=56	=56	=56	=56
1r	.	2Em	E:min (E G B)	.	.	synthesizer
.	.	2AM	A:maj6 (A C# E F#)	.	.	synthesizer
=57	=57	=57	=57	=57	=57	=57
1r	.	2Em	E:min (E G B)	newline	108.26	synthesizer
.	.	2AM	A:maj6 (A C# E F#)	.	.	synthesizer
=58	=58	=58	=58	=58	=58	=58
1r	.	2Em	E:min (E G B)	.	.	synthesizer
.	.	2AM	A:maj6 (A C# E F#)	.	.	synthesizer
=59	=59	=59	=59	=59	=59	=59
1r	.	2Em	E:min (E G B)	.	.	synthesizer
.	.	2AM	A:maj6 (A C# E F#)	.	.	synthesizer
=60	=60	=60	=60	=60	=60	=60
8cc#	(Ve-	1Em	E:min (E G B)	.	.	synthesizer
8cc#	-nus)	.	.	.	.	.
2r	.	.	.	.	.	.
8r	.	.	.	.	.	.
8ee	She's	.	.	.	.	.
=61	=61	=61	=61	=61	=61	=61
*	*	*>C_chorus	*>C_chorus	*>C_chorus	*>C_chorus	*>C_chorus
8ff#	got	2Amm	A:min7 (A C E G)	newline	115.914	voice
8ff#	it	.	.	.	.	.
4r	.	.	.	.	.	.
2r	.	2DM	D:maj6 (D F# A B)	.	.	voice
=62	=62	=62	=62	=62	=62	=62
4r	.	2Amm	A:min7 (A C E G)	.	.	voice
8ff#	Yeah	.	.	.	.	.
4ff#	ba-	.	.	.	.	.
.	.	2DM	D:maj6 (D F# A B)	.	.	voice
8ee	-by	.	.	.	.	.
4ff#	she's	.	.	.	.	.
=63	=63	=63	=63	=63	=63	=63
8ee	got	2Em	E:min (E G B)	.	.	voice
8cc#	it	.	.	.	.	.
4r	.	.	.	.	.	.
2r	.	2AM	A:maj6 (A C# E F#)	.	.	voice
=64	=64	=64	=64	=64	=64	=64
1r	.	2Em	E:min (E G B)	.	.	voice
.	.	2AM	A:maj6 (A C# E F#)	.	.	voice
=65	=65	=65	=65	=65	=65	=65
8r	.	1CM	C:maj (C E G)	newline	123.538	voice
4ee	I'm	.	.	.	.	.
8cc#	your	.	.	.	.	.
8cc#	Ve-	.	.	.	.	.
8ee	-nus	.	.	.	.	.
4r	.	.	.	.	.	.
=66	=66	=66	=66	=66	=66	=66
8r	.	2Bm	B:sus4(b7) (B E F# A)	.	.	voice
4gg#	I'm	.	.	.	.	.
8gg#	your	.	.	.	.	.
8ff#	fi-	2BMm	B:7 (B D# F# A)	.	.	voice
8gg#	-re	.	.	.	.	.
8cc#	at	.	.	.	.	.
[8ee	your	.	.	.	.	.
=67	=67	=67	=67	=67	=67	=67
8ee]	_	2Em	E:min (E G B)	.	.	voice
8cc#	de-	.	.	.	.	.
8b	-si-	.	.	.	.	.
8cc#	-re	.	.	.	.	.
2r	.	2AM	A:maj6 (A C# E F#)	.	.	voice
=68	=68	=68	=68	=68	=68	=68
2r	.	2Em	E:min (E G B)	.	.	voice
4r	.	2AM	A:maj6 (A C# E F#)	.	.	voice
4cc#	Well	.	.	.	.	.
=69	=69	=69	=69	=69	=69	=69
8r	.	1CM	C:maj (C E G)	newline	131.197	voice
4ee	I'm	.	.	.	.	.
8cc#	your	.	.	.	.	.
8cc#	Ve-	.	.	.	.	.
8ee	-nus	.	.	.	.	.
4r	.	.	.	.	.	.
=70	=70	=70	=70	=70	=70	=70
8r	.	2Bm	B:sus4(b7) (B E F# A)	.	.	voice
4gg#	I'm	.	.	.	.	.
8gg#	your	.	.	.	.	.
8ff#	fi-	2BMm	B:7 (B D# F# A)	.	.	voice
8gg#	-re	.	.	.	.	.
8cc#	at	.	.	.	.	.
[8ee	your	.	.	.	.	.
=71	=71	=71	=71	=71	=71	=71
8ee]	_	2Em	E:min (E G B)	.	.	voice
8cc#	de-	.	.	.	.	.
8b	-si-	.	.	.	.	.
8cc#	-re	.	.	.	.	.
2r	.	2AM	A:maj6 (A C# E F#)	.	.	voice
=72	=72	=72	=72	=72	=72	=72
1r	.	2Em	E:min (E G B)	.	.	voice
.	.	2AM	A:maj6 (A C# E F#)	.	.	voice
=73	=73	=73	=73	=73	=73	=73
*	*	*>B_verse	*>B_verse	*>B_verse	*>B_verse	*>B_verse
8ee	God-	2Em	E:min (E G B)	newline	138.816	voice
8ee	-dess	.	.	.	.	.
8dd#	on	.	.	.	.	.
8cc#	the	.	.	.	.	.
8cc#	moun-	2AM	A:maj (A C# E)	.	.	voice
8b	-tain	.	.	.	.	.
8cc#	_	.	.	.	.	.
8cc#	top	.	.	.	.	.
=74	=74	=74	=74	=74	=74	=74
1r	.	2Emm	E:min7 (E G B D)	.	.	voice
.	.	2AM	A:maj (A C# E)	.	.	voice
=75	=75	=75	=75	=75	=75	=75
8ee	bur-	2Em	E:min (E G B)	.	.	voice
8ee	-ning	.	.	.	.	.
8dd#	like	.	.	.	.	.
8cc#	a	.	.	.	.	.
8cc#	sil-	2AM	A:maj (A C# E)	.	.	voice
4cc#	-ver	.	.	.	.	.
8cc#	flame	.	.	.	.	.
=76	=76	=76	=76	=76	=76	=76
2r	.	2Emm	E:min7 (E G B D)	.	.	voice
4r	.	2AM	A:maj (A C# E)	.	.	voice
8r	.	.	.	.	.	.
8cc#	the	.	.	.	.	.
=77	=77	=77	=77	=77	=77	=77
8ee	sum-	2Em	E:min (E G B)	newline	146.487	voice
8ee	-mit	.	.	.	.	.
8dd#	of	.	.	.	.	.
4cc#	beau-	.	.	.	.	.
.	.	2AM	A:maj (A C# E)	.	.	voice
8cc#	-ty	.	.	.	.	.
8cc#	and	.	.	.	.	.
8cc#	love	.	.	.	.	.
=78	=78	=78	=78	=78	=78	=78
2r	.	2Emm	E:min7 (E G B D)	.	.	voice
4r	.	2AM	A:maj (A C# E)	.	.	voice
8r	.	.	.	.	.	.
8cc#	and	.	.	.	.	.
=79	=79	=79	=79	=79	=79	=79
8ee	Ve-	2Em	E:min (E G B)	.	.	voice
8ee	-nus	.	.	.	.	.
8dd#	was	.	.	.	.	.
8cc#	her	.	.	.	.	.
8cc#	name	2AM	A:maj (A C# E)	.	.	voice
8dd#	_	.	.	.	.	.
4r	.	.	.	.	.	.
=80	=80	=80	=80	=80	=80	=80
2r	.	2Emm	E:min7 (E G B D)	.	.	voice
4r	.	2AM	A:maj (A C# E)	.	.	voice
8r	.	.	.	.	.	.
8ee	She's	.	.	.	.	.
=81	=81	=81	=81	=81	=81	=81
*	*	*>C_chorus	*>C_chorus	*>C_chorus	*>C_chorus	*>C_chorus
8ff#	got	2Amm	A:min7 (A C E G)	newline	154.12	voice
8ff#	it	.	.	.	.	.
4r	.	.	.	.	.	.
2r	.	2DM	D:maj6 (D F# A B)	.	.	voice
=82	=82	=82	=82	=82	=82	=82
4r	.	2Amm	A:min7 (A C E G)	.	.	voice
8ff#	Yeah	.	.	.	.	.
4ff#	ba-	.	.	.	.	.
.	.	2DM	D:maj6 (D F# A B)	.	.	voice
8ee	-by	.	.	.	.	.
4ff#	she's	.	.	.	.	.
=83	=83	=83	=83	=83	=83	=83
8ee	got	2Em	E:min (E G B)	.	.	voice
8cc#	it	.	.	.	.	.
4r	.	.	.	.	.	.
2r	.	2AM	A:maj6 (A C# E F#)	.	.	voice
=84	=84	=84	=84	=84	=84	=84
1r	.	2Em	E:min (E G B)	.	.	voice
.	.	2AM	A:maj6 (A C# E F#)	.	.	voice
=85	=85	=85	=85	=85	=85	=85
8r	.	1CM	C:maj (C E G)	newline	161.752	voice
4ee	I'm	.	.	.	.	.
8cc#	your	.	.	.	.	.
8cc#	Ve-	.	.	.	.	.
8ee	-nus	.	.	.	.	.
4r	.	.	.	.	.	.
=86	=86	=86	=86	=86	=86	=86
8r	.	2Bm	B:sus4(b7) (B E F# A)	.	.	voice
4gg#	I'm	.	.	.	.	.
8gg#	your	.	.	.	.	.
8ff#	fi-	2BMm	B:7 (B D# F# A)	.	.	voice
8gg#	-re	.	.	.	.	.
8cc#	at	.	.	.	.	.
[8ee	your	.	.	.	.	.
=87	=87	=87	=87	=87	=87	=87
8ee]	_	2Em	E:min (E G B)	.	.	voice
8cc#	de-	.	.	.	.	.
8b	-si-	.	.	.	.	.
8cc#	-re	.	.	.	.	.
2r	.	2AM	A:maj6 (A C# E F#)	.	.	voice
=88	=88	=88	=88	=88	=88	=88
2r	.	2Em	E:min (E G B)	.	.	voice
4r	.	2AM	A:maj6 (A C# E F#)	.	.	voice
4cc#	Well	.	.	.	.	.
=89	=89	=89	=89	=89	=89	=89
8r	.	1CM	C:maj (C E G)	newline	169.397	voice
4ee	I'm	.	.	.	.	.
8cc#	your	.	.	.	.	.
8cc#	Ve-	.	.	.	.	.
8ee	-nus	.	.	.	.	.
4r	.	.	.	.	.	.
=90	=90	=90	=90	=90	=90	=90
8r	.	2Bm	B:sus4(b7) (B E F# A)	.	.	voice
4gg#	I'm	.	.	.	.	.
8gg#	your	.	.	.	.	.
8ff#	fi-	2BMm	B:7 (B D# F# A)	.	.	voice
8gg#	-re	.	.	.	.	.
8cc#	at	.	.	.	.	.
[8ee	your	.	.	.	.	.
=91	=91	=91	=91	=91	=91	=91
8ee]	_	2Em	E:min (E G B)	.	.	voice
8cc#	de-	.	.	.	.	.
8b	-si-	.	.	.	.	.
8cc#	-re	.	.	.	.	.
2r	.	2AM	A:maj6 (A C# E F#)	.	.	voice
=92	=92	=92	=92	=92	=92	=92
1r	.	2Em	E:min (E G B)	.	.	voice
.	.	2AM	A:maj6 (A C# E F#)	.	.	voice
=93	=93	=93	=93	=93	=93	=93
*	*	*>A2_trans	*>A2_trans	*>A2_trans	*>A2_trans	*>A2_trans
2r	.	1Bm	B:sus4(b7) (B E F# A)	newline	177.053	synthesizer
4r	.	.	.	.	.	.
8r	.	.	.	.	.	.
[8b	(Ve-	.	.	.	.	.
=94	=94	=94	=94	=94	=94	=94
8b]	_	1Bm	B:sus4(b7) (B E F# A)	.	.	synthesizer
8b	nus	.	.	.	.	.
8a#	was	.	.	.	.	.
8g#	her	.	.	.	.	.
8g#	name)	.	.	.	.	.
8a#	_	.	.	.	.	.
8r	.	.	.	.	.	.
8r	.	.	.	.	.	.
=95	=95	=95	=95	=95	=95	=95
1r	.	1Bm	B:sus4(b7) (B E F# A)	.	.	synthesizer
=96	=96	=96	=96	=96	=96	=96
1r	.	1Bm	B:sus4(b7) (B E F# A)	.	.	synthesizer
=97	=97	=97	=97	=97	=97	=97
*	*	*>B2_outro	*>B2_outro	*>B2_outro	*>B2_outro	*>B2_outro
1r	.	2Em	E:min (E G B)	newline	184.699	synthesizer
.	.	2AM	A:maj6 (A C# E F#)	.	.	synthesizer
=98	=98	=98	=98	=98	=98	=98
4r	.	2Em	E:min (E G B)	.	.	synthesizer
8ff#	Yeah	.	.	.	.	.
4ff#	ba-	.	.	.	.	.
.	.	2AM	A:maj6 (A C# E F#)	.	.	synthesizer
8ee	-by	.	.	.	.	.
4ff#	she's	.	.	.	.	.
=99	=99	=99	=99	=99	=99	=99
8ee	got	2Em	E:min (E G B)	.	.	synthesizer
8cc#	it	.	.	.	.	.
4r	.	.	.	.	.	.
2r	.	2AM	A:maj6 (A C# E F#)	.	.	synthesizer
=100	=100	=100	=100	=100	=100	=100
4r	.	2Em	E:min (E G B)	.	.	synthesizer
8ff#	Yeah	.	.	.	.	.
4ff#	ba-	.	.	.	.	.
.	.	2AM	A:maj6 (A C# E F#)	.	.	synthesizer
8ee	-by	.	.	.	.	.
4ff#	she's	.	.	.	.	.
=101	=101	=101	=101	=101	=101	=101
8ee	got	2Em	E:min (E G B)	newline	192.364	synthesizer
8cc#	it	.	.	.	.	.
4r	.	.	.	.	.	.
2r	.	2AM	A:maj6 (A C# E F#)	.	.	synthesizer
=102	=102	=102	=102	=102	=102	=102
4r	.	2Em	E:min (E G B)	.	.	synthesizer
8ff#	Yeah	.	.	.	.	.
4ff#	ba-	.	.	.	.	.
.	.	2AM	A:maj6 (A C# E F#)	.	.	synthesizer
8ee	-by	.	.	.	.	.
4ff#	she's	.	.	.	.	.
=103	=103	=103	=103	=103	=103	=103
8ee	got	2Em	E:min (E G B)	.	.	synthesizer
8cc#	it	.	.	.	.	.
4r	.	.	.	.	.	.
2r	.	2AM	A:maj6 (A C# E F#)	.	.	synthesizer
=104	=104	=104	=104	=104	=104	=104
4r	.	2Em	E:min (E G B)	.	.	synthesizer
8ff#	Yeah	.	.	.	.	.
4ff#	ba-	.	.	.	.	.
.	.	2AM	A:maj6 (A C# E F#)	.	.	synthesizer
8ee	-by	.	.	.	.	.
4ff#	she's	.	.	.	.	.
=105	=105	=105	=105	=105	=105	=105
*	*	*>_fadeout	*>_fadeout	*>_fadeout	*>_fadeout	*>_fadeout
8ee	got	2Em	E:min (E G B)	newline	199.911	synthesizer
8cc#	it	.	.	.	.	.
4r	.	.	.	.	.	.
2r	.	2AM	A:maj6 (A C# E F#)	.	.	synthesizer
=106	=106	=106	=106	=106	=106	=106
4r	.	2Em	E:min (E G B)	.	.	synthesizer
8ff#	Yeah	.	.	.	.	.
4ff#	ba-	.	.	.	.	.
.	.	2AM	A:maj6 (A C# E F#)	.	.	synthesizer
8ee	-by	.	.	.	.	.
4ff#	she's	.	.	.	.	.
=107	=107	=107	=107	=107	=107	=107
8ee	got	2Em	E:min (E G B)	.	.	synthesizer
8cc#	it	.	.	.	.	.
4r	.	.	.	.	.	.
2r	.	2AM	A:maj6 (A C# E F#)	.	.	synthesizer
=108	=108	=108	=108	=108	=108	=108
4r	.	2Em	E:min (E G B)	.	.	synthesizer
8ff#	Yeah	.	.	.	.	.
4ff#	ba-	.	.	.	.	.
.	.	2AM	A:maj6 (A C# E F#)	.	.	synthesizer
8ee	-by	.	.	.	.	.
4ff#	she's	.	.	.	.	.
=109	=109	=109	=109	=109	=109	=109
8ee	got	2Em	E:min (E G B)	newline	207.596	synthesizer
8cc#	it	.	.	.	.	.
4r	.	.	.	.	.	.
2r	.	2AM	A:maj6 (A C# E F#)	.	.	synthesizer
=110	=110	=110	=110	=110	=110	=110
4r	.	2Em	E:min (E G B)	.	.	synthesizer
8ff#	Yeah	.	.	.	.	.
4ff#	ba-	.	.	.	.	.
.	.	2AM	A:maj6 (A C# E F#)	.	.	synthesizer
8ee	-by	.	.	.	.	.
4ff#	she's	.	.	.	.	.
=111	=111	=111	=111	=111	=111	=111
8ee	got	2Em	E:min (E G B)	.	.	synthesizer
8cc#	it	.	.	.	.	.
4r	.	.	.	.	.	.
2r	.	2AM	A:maj6 (A C# E F#)	.	.	synthesizer
=112	=112	=112	=112	=112	=112	=112
1r	.	2Em	E:min (E G B)	.	.	synthesizer
.	.	2AM	A:maj6 (A C# E F#)	.	.	synthesizer
r;	.	1r;	r	.	217.014	r
r;	.	1r;	r	.	222.302	r
*-	*-	*-	*-	*-	*-	*-
!!!BillboardChartDate: 1986/11/01
!!!BillboardPeak: 1
!!!BillboardWeeksOnChart: 19
!!!COC: Bananarama
!!!EMD: 
!!!ENC: Nathaniel Condit-Schultz
!!!EST: Awating manual error checking and editing.
!!!OTL: Venus
!!!RDF**chordsym: original McGill chord annotation + (implied pitch class set, with bass pitch in first position)
!!!RDF**harmony: **recip + pitch class of root + harmonic quality
!!!RDF**leadinstrument: original McGill primary instrumentation annotation
!!!RDF**phrase: newline = linebreak in original McGill transcription
!!!RDF**timestamp: McGill audio timestamp in seconds
!!!RDT: 2017/01/12/
!!!SampleActualRank: 99
!!!SampleID#: 0981
!!!SampleTargetRank: 97
